%
( Program NO.= Ofinish )
( Cutting Time=0.8 Min )
( Post Date = 2021-09-01 14:35:30 )
( Max X = 36.719  MIN X = -29.614 )
( Max Y = 33.216  MIN Y = -41.739 )
(===========================================)
G57 G90 G40 G17 G80
G01 X-40 Y-20
G04 X2
G01 X-26.949 Y-31.037 F3000
G04 X2
X-26.808 Y-31.1
X-26.664 Y-31.154
X-26.518 Y-31.202
X-26.369 Y-31.242
X-26.219 Y-31.274
X-26.067 Y-31.298
X-25.914 Y-31.315
X-25.761 Y-31.324
X-25.607 Y-31.325
X-25.453 Y-31.318
X-25.3 Y-31.303
X-25.148 Y-31.28
X-24.997 Y-31.25
X-24.848 Y-31.211
X-24.701 Y-31.166
X-24.557 Y-31.112
X-24.416 Y-31.052
X-24.277 Y-30.984
X-24.143 Y-30.909
X-24.012 Y-30.828
X-23.886 Y-30.74
X-23.765 Y-30.646
X-23.648 Y-30.545
X-23.537 Y-30.439
X-23.432 Y-30.327
X-23.332 Y-30.21
X-23.239 Y-30.087
X-23.152 Y-29.961
X-23.071 Y-29.83
X-22.634 Y-29.076
X-22.557 Y-28.95
X-22.474 Y-28.829
X-22.385 Y-28.711
X-22.29 Y-28.598
X-22.19 Y-28.49
X-22.085 Y-28.387
X-21.975 Y-28.289
X-21.86 Y-28.196
X-21.74 Y-28.11
X-21.617 Y-28.029
X-21.49 Y-27.955
X-21.359 Y-27.887
X-21.225 Y-27.825
X-21.088 Y-27.77
X-20.949 Y-27.722
X-20.807 Y-27.681
X-20.394 Y-27.571 
X-20.244 Y-27.535
X-20.091 Y-27.507
X-19.938 Y-27.486
X-19.783 Y-27.474
X-19.628 Y-27.47
X-19.474 Y-27.474
X-19.319 Y-27.485
X-19.165 Y-27.505
X-19.013 Y-27.532
X-18.862 Y-27.568
X-18.713 Y-27.611
X-18.567 Y-27.662
X-18.423 Y-27.72
X-18.283 Y-27.785
X-18.174 Y-27.843
X-17.751 Y-28.076
X-17.341 Y-28.294
X-16.929 Y-28.506
X-16.513 Y-28.712
X-16.095 Y-28.913
X-15.674 Y-29.108
X-15.25 Y-29.296
X-14.824 Y-29.479
X-14.395 Y-29.656
X-13.964 Y-29.826
X-13.53 Y-29.991
X-13.095 Y-30.149
X-12.657 Y-30.301
X-12.217 Y-30.447
X-11.775 Y-30.586
X-11.331 Y-30.72
X-10.885 Y-30.847
X-10.438 Y-30.967
X-9.988 Y-31.081
X-9.538 Y-31.189
X-9.086 Y-31.291
X-8.632 Y-31.385
X-8.178 Y-31.474
X-7.722 Y-31.556
X-7.265 Y-31.631
X-6.807 Y-31.7
X-6.348 Y-31.762
X-5.888 Y-31.818
X-5.428 Y-31.867
X-4.967 Y-31.909
X-4.506 Y-31.945
X-4.044 Y-31.974
X-3.581 Y-31.996
X-3.119 Y-32.012
X-2.656 Y-32.021
X-2.194 Y-32.023
X-1.731 Y-32.019
X-1.268 Y-32.008
X-.806 Y-31.99
X-.344 Y-31.966
X.117 Y-31.935
X.578 Y-31.897
X1.038 Y-31.852
X1.498 Y-31.801
X1.956 Y-31.743
X2.414 Y-31.678
X2.871 Y-31.607
X3.326 Y-31.529
X3.781 Y-31.445
X4.234 Y-31.354
X4.685 Y-31.256
X5.135 Y-31.151
X5.584 Y-31.04
X6.031 Y-30.923
X6.475 Y-30.798
X6.918 Y-30.668
X7.359 Y-30.531
X7.798 Y-30.387
X8.235 Y-30.237
X8.669 Y-30.08
X9.101 Y-29.917
X9.531 Y-29.748
X9.957 Y-29.572
X10.381 Y-29.39
X10.803 Y-29.202
X11.221 Y-29.008
X11.637 Y-28.807
X12.049 Y-28.6
X12.458 Y-28.387
X12.864 Y-28.168
X13.267 Y-27.943
X13.666 Y-27.712
X14.061 Y-27.475
X14.453 Y-27.233
X14.842 Y-26.984
X15.226 Y-26.73
X15.607 Y-26.47
X15.983 Y-26.204
X16.355 Y-25.932
X16.724 Y-25.655
X17.088 Y-25.373
X17.447 Y-25.085
X17.802 Y-24.792
X18.153 Y-24.493
X18.499 Y-24.189
X18.841 Y-23.88
X19.177 Y-23.566
X19.509 Y-23.247
X19.836 Y-22.922
X20.157 Y-22.593
X20.474 Y-22.259
X20.786 Y-21.921
X21.092 Y-21.577
X21.393 Y-21.229
X21.688 Y-20.877
X21.978 Y-20.52
X22.263 Y-20.158
X22.542 Y-19.793
X22.815 Y-19.423
X23.083 Y-19.049
X23.344 Y-18.671
X23.6 Y-18.288
X23.85 Y-17.903
X24.093 Y-17.513
X24.331 Y-17.12
X24.562 Y-16.723
X24.788 Y-16.322
X25.007 Y-15.918
X25.219 Y-15.511
X25.425 Y-15.101
X25.625 Y-14.687
X25.818 Y-14.271
X26.005 Y-13.851
X26.185 Y-13.429
X26.359 Y-13.004
X26.526 Y-12.576
X26.686 Y-12.146
X26.839 Y-11.714
X26.985 Y-11.279
X27.125 Y-10.842
X27.257 Y-10.403
X27.384 Y-9.956
X27.443 Y-9.74
X27.501 Y-9.518
X27.558 Y-9.296
X27.613 Y-9.074
X27.666 Y-8.851
X27.717 Y-8.627
X27.767 Y-8.403
X27.815 Y-8.179
X27.861 Y-7.955
X27.905 Y-7.73
X27.947 Y-7.505
X27.988 Y-7.279
X28.027 Y-7.053
X28.064 Y-6.827
X28.099 Y-6.601
X28.132 Y-6.374
X28.164 Y-6.147
X28.194 Y-5.92
X28.222 Y-5.693
X28.248 Y-5.465
X28.272 Y-5.237
X28.295 Y-5.009
X28.315 Y-4.781
X28.334 Y-4.553
X28.351 Y-4.325
X28.366 Y-4.096
X28.38 Y-3.868
X28.391 Y-3.639
X28.401 Y-3.41
X28.409 Y-3.182
X28.415 Y-2.953
X28.419 Y-2.724
X28.421 Y-2.495
X28.422 Y-2.266
X28.42 Y-2.038
X28.417 Y-1.809
X28.412 Y-1.58
X28.405 Y-1.351
X28.396 Y-1.123
X28.386 Y-.894
X28.373 Y-.666
X28.359 Y-.437
X28.343 Y-.209
X28.325 Y.019
X28.305 Y.247
X28.283 Y.474
X28.259 Y.702
X28.234 Y.929
X28.207 Y1.156
X28.178 Y1.383
X28.147 Y1.609
X28.114 Y1.835
X28.079 Y2.061
X28.043 Y2.287
X28.005 Y2.512
X27.964 Y2.737
X27.922 Y2.962
X27.879 Y3.186
X27.833 Y3.41
X27.785 Y3.633
X27.736 Y3.856
X27.685 Y4.079
X27.632 Y4.301
X27.577 Y4.523
X27.521 Y4.744
X27.462 Y4.965
X27.402 Y5.185
X27.34 Y5.405
X27.276 Y5.624
X27.211 Y5.843
X27.143 Y6.061
X27.074 Y6.279
X27.003 Y6.496
X26.931 Y6.712
X26.856 Y6.928
X26.78 Y7.143
X26.702 Y7.357
X26.622 Y7.571
X26.54 Y7.784
X26.457 Y7.996
X26.372 Y8.208
X26.285 Y8.419
X26.196 Y8.629
X26.106 Y8.839
X26.014 Y9.047
X25.92 Y9.255
X25.824 Y9.462
X25.727 Y9.668
X25.628 Y9.874
X25.527 Y10.078
X25.425 Y10.282
X25.321 Y10.485
X25.215 Y10.687
X25.108 Y10.888
X24.999 Y11.088
X24.888 Y11.287
X24.776 Y11.485
X24.661 Y11.683
X24.546 Y11.879
X24.428 Y12.074
X24.309 Y12.269
X24.189 Y12.462
X24.067 Y12.654
X23.943 Y12.845
X23.817 Y13.035
X23.69 Y13.224
X23.562 Y13.412
X23.432 Y13.599
X23.3 Y13.785
X23.167 Y13.969
X23.032 Y14.153
X22.895 Y14.335
X22.758 Y14.516
X22.618 Y14.696
X22.477 Y14.875
X22.335 Y15.052
X22.191 Y15.229
X22.046 Y15.404
X21.899 Y15.577
X21.75 Y15.75
X21.601 Y15.921
X21.449 Y16.091
X21.297 Y16.26
X21.143 Y16.427
X20.987 Y16.593
X20.83 Y16.757
X20.672 Y16.921
X20.512 Y17.083
X20.351 Y17.243
X20.189 Y17.402
X20.025 Y17.56
X19.86 Y17.716
X19.694 Y17.871
X19.526 Y18.024
X19.357 Y18.176
X19.187 Y18.327
X19.015 Y18.476
X18.843 Y18.623
X18.668 Y18.769
X18.493 Y18.913
X18.317 Y19.056
X18.139 Y19.198
X17.96 Y19.338
X17.78 Y19.476
X17.598 Y19.612
X17.416 Y19.748
X17.232 Y19.881
X17.048 Y20.013
X16.862 Y20.143
X16.675 Y20.272
X16.487 Y20.399
X16.297 Y20.524
X16.107 Y20.648
X15.916 Y20.77
X15.724 Y20.89
X15.53 Y21.009
X15.336 Y21.126
X15.14 Y21.241
X14.944 Y21.354
X14.747 Y21.466
X14.549 Y21.576
X14.349 Y21.684
X14.149 Y21.791
X13.948 Y21.896
X13.746 Y21.999
X13.543 Y22.1
X13.34 Y22.199
X13.135 Y22.297
X12.93 Y22.392
X12.723 Y22.486
X12.516 Y22.578
X12.309 Y22.669
X12.1 Y22.757
X11.891 Y22.844
X11.681 Y22.928
X11.47 Y23.011
X11.259 Y23.092
X11.046 Y23.171
X10.833 Y23.248
X10.62 Y23.324
X10.406 Y23.397
X10.191 Y23.469
X9.976 Y23.538
X9.76 Y23.606
X9.543 Y23.671
X9.326 Y23.735
X9.108 Y23.797
X8.89 Y23.857
X8.672 Y23.915
X8.452 Y23.97
X8.233 Y24.024
X8.013 Y24.076
X7.792 Y24.126
X7.571 Y24.174
X7.35 Y24.22
X7.128 Y24.264
X6.906 Y24.306
X6.683 Y24.347
X6.461 Y24.385
X6.238 Y24.421
X6.014 Y24.455
X5.791 Y24.486
X5.567 Y24.516
X5.342 Y24.544
X5.118 Y24.57
X4.893 Y24.594
X4.669 Y24.616
X4.444 Y24.636
X4.219 Y24.653
X3.993 Y24.669
X3.768 Y24.683
X3.543 Y24.694
X3.317 Y24.704
X3.092 Y24.711
X2.866 Y24.717
X2.64 Y24.72
X2.415 Y24.721
X2.189 Y24.72
X1.963 Y24.718
X1.738 Y24.713
X1.513 Y24.706
X1.287 Y24.697
X1.062 Y24.686
X.837 Y24.672
X.612 Y24.657
X.387 Y24.64
X.163 Y24.62
X-.062 Y24.599
X-.286 Y24.575
X-.51 Y24.55
X-.733 Y24.522
X-.957 Y24.493
X-1.18 Y24.461
X-1.402 Y24.427
X-1.625 Y24.391
X-1.847 Y24.353
X-2.068 Y24.313
X-2.29 Y24.271
X-2.51 Y24.227
X-2.731 Y24.181
X-2.951 Y24.133
X-3.17 Y24.083
X-3.389 Y24.03
X-3.607 Y23.976
X-3.825 Y23.92
X-4.042 Y23.861
X-4.259 Y23.801
X-4.475 Y23.739
X-4.691 Y23.674
X-4.905 Y23.608
X-5.12 Y23.539
X-5.333 Y23.469
X-5.546 Y23.396
X-5.758 Y23.322
X-5.97 Y23.246
X-6.18 Y23.167
X-6.39 Y23.087
X-6.599 Y23.004
X-6.807 Y22.92
X-7.015 Y22.834
X-7.221 Y22.746
X-7.427 Y22.656
X-7.632 Y22.563
X-7.836 Y22.469
X-8.039 Y22.374
X-8.241 Y22.276
X-8.442 Y22.176
X-8.642 Y22.074
X-8.841 Y21.971
X-9.039 Y21.865
X-9.236 Y21.758
X-9.432 Y21.649
X-9.627 Y21.538
X-9.821 Y21.425
X-10.014 Y21.31
X-10.205 Y21.194
X-10.396 Y21.075
X-10.585 Y20.955
X-10.773 Y20.833
X-10.96 Y20.709
X-11.146 Y20.584
X-11.33 Y20.456
X-11.513 Y20.327
X-11.695 Y20.196
X-11.876 Y20.064
X-12.055 Y19.93
X-12.233 Y19.794
X-12.409 Y19.656
X-12.585 Y19.516
X-12.758 Y19.375
X-12.931 Y19.233
X-13.102 Y19.088
X-13.272 Y18.942
X-13.44 Y18.794
X-13.606 Y18.645
X-13.772 Y18.494
X-13.935 Y18.342
X-14.097 Y18.188
X-14.258 Y18.032
X-14.417 Y17.875
X-14.575 Y17.716
X-14.731 Y17.556
X-14.885 Y17.394
X-15.038 Y17.231
X-15.189 Y17.066
X-15.338 Y16.9
X-15.486 Y16.733
X-15.632 Y16.564
X-15.776 Y16.393
X-15.919 Y16.221
X-16.06 Y16.048
X-16.199 Y15.874
X-16.337 Y15.698
X-16.472 Y15.52
X-16.606 Y15.342
X-16.738 Y15.162
X-16.869 Y14.981
X-16.997 Y14.798
X-17.124 Y14.615
X-17.248 Y14.43
X-17.371 Y14.244
X-17.492 Y14.056
X-17.611 Y13.868
X-17.729 Y13.678
X-17.844 Y13.487
X-17.957 Y13.295
X-18.069 Y13.102
X-18.178 Y12.908
X-18.286 Y12.713
X-18.391 Y12.517
X-18.494 Y12.32
X-18.596 Y12.121
X-18.695 Y11.922
X-18.793 Y11.722
X-18.888 Y11.521
X-18.981 Y11.319
X-19.073 Y11.116
X-19.162 Y10.912
X-19.249 Y10.707
X-19.334 Y10.501
X-19.417 Y10.295
X-19.497 Y10.088
X-19.576 Y9.88
X-19.652 Y9.671
X-19.727 Y9.461
X-19.799 Y9.251
X-19.869 Y9.04
X-19.936 Y8.828
X-20.002 Y8.616
X-20.065 Y8.403
X-20.127 Y8.19
X-20.186 Y7.975
X-20.242 Y7.761
X-20.297 Y7.546
X-20.349 Y7.33
X-20.399 Y7.114
X-20.447 Y6.897
X-20.493 Y6.68
X-20.536 Y6.462
X-20.577 Y6.244
X-20.616 Y6.026
X-20.652 Y5.807
X-20.686 Y5.588
X-20.718 Y5.368
X-20.748 Y5.149
X-20.775 Y4.929
X-20.8 Y4.708
X-20.823 Y4.488
X-20.843 Y4.267
X-20.861 Y4.047
X-20.877 Y3.826
X-20.89 Y3.605
X-20.901 Y3.384
X-20.91 Y3.162
X-20.916 Y2.941
X-20.92 Y2.72
X-20.922 Y2.499
X-20.921 Y2.277
X-20.918 Y2.056
X-20.913 Y1.835
X-20.905 Y1.614
X-20.895 Y1.393
X-20.883 Y1.172
X-20.868 Y.952
X-20.851 Y.732
X-20.832 Y.511
X-20.81 Y.292
X-20.786 Y.072
X-20.759 Y-.147
X-20.73 Y-.366
X-20.699 Y-.585
X-20.666 Y-.803
X-20.63 Y-1.021
X-20.591 Y-1.238
X-20.551 Y-1.455
X-20.508 Y-1.671
X-20.463 Y-1.887
X-20.415 Y-2.102
X-20.365 Y-2.317
X-20.313 Y-2.531
X-20.259 Y-2.745
X-20.202 Y-2.958
X-20.143 Y-3.17
X-20.081 Y-3.382
X-20.018 Y-3.593
X-19.952 Y-3.803
X-19.883 Y-4.012
X-19.813 Y-4.221
X-19.74 Y-4.428
X-19.665 Y-4.635
X-19.587 Y-4.841
X-19.508 Y-5.046
X-19.426 Y-5.25
X-19.342 Y-5.454
X-19.256 Y-5.656
X-19.167 Y-5.857
X-19.076 Y-6.057
X-18.983 Y-6.256
X-18.888 Y-6.454
X-18.791 Y-6.651
X-18.692 Y-6.847
X-18.59 Y-7.042
X-18.486 Y-7.235
X-18.38 Y-7.428
X-18.272 Y-7.619
X-18.162 Y-7.808
X-18.05 Y-7.997
X-17.936 Y-8.184
X-17.819 Y-8.37
X-17.701 Y-8.555
X-17.58 Y-8.738
X-17.458 Y-8.919
X-17.333 Y-9.1
X-17.207 Y-9.279
X-17.078 Y-9.456
X-16.948 Y-9.632
X-16.815 Y-9.806
X-16.681 Y-9.979
X-16.544 Y-10.15
X-16.406 Y-10.32
X-16.266 Y-10.488
X-16.124 Y-10.654
X-15.98 Y-10.819
X-15.834 Y-10.982
X-15.687 Y-11.143
X-15.537 Y-11.303
X-15.386 Y-11.46
X-15.233 Y-11.616
X-15.078 Y-11.771
X-14.922 Y-11.923
X-14.764 Y-12.073
X-14.604 Y-12.222
X-14.442 Y-12.369
X-14.279 Y-12.514
X-14.114 Y-12.657
X-13.948 Y-12.797
X-13.78 Y-12.936
X-13.61 Y-13.073
X-13.439 Y-13.208
X-13.266 Y-13.341
X-13.092 Y-13.472
X-12.916 Y-13.601
X-12.739 Y-13.727
X-12.56 Y-13.852
X-12.38 Y-13.974
X-12.199 Y-14.095
X-12.016 Y-14.213
X-11.832 Y-14.329
X-11.647 Y-14.442
X-11.46 Y-14.554
X-11.272 Y-14.663
X-11.083 Y-14.77
X-10.892 Y-14.874
X-10.701 Y-14.977
X-10.508 Y-15.077
X-10.314 Y-15.174
X-10.119 Y-15.27
X-9.923 Y-15.363
X-9.725 Y-15.453
X-9.527 Y-15.542
X-9.328 Y-15.627
X-9.128 Y-15.711
X-8.927 Y-15.792
X-8.725 Y-15.87
X-8.522 Y-15.946
X-8.318 Y-16.019
X-8.113 Y-16.09
X-7.908 Y-16.159
X-7.702 Y-16.225
X-7.495 Y-16.288
X-7.287 Y-16.349
X-7.079 Y-16.407
X-6.87 Y-16.463
X-6.66 Y-16.516
X-6.45 Y-16.567
X-6.24 Y-16.615
X-6.028 Y-16.66
X-5.817 Y-16.703
X-5.604 Y-16.743
X-5.392 Y-16.781
X-5.179 Y-16.815
X-4.966 Y-16.847
X-4.752 Y-16.877
X-4.538 Y-16.904
X-4.324 Y-16.928
X-4.109 Y-16.949
X-3.895 Y-16.968
X-3.68 Y-16.984
X-3.465 Y-16.998
X-3.25 Y-17.008
X-3.035 Y-17.016
X-2.82 Y-17.021
X-2.605 Y-17.024
X-2.39
X-2.175 Y-17.021
X-1.96 Y-17.015
X-1.745 Y-17.007
X-1.531 Y-16.996
X-1.316 Y-16.982
X-1.102 Y-16.965
X-.888 Y-16.946
X-.675 Y-16.924
X-.462 Y-16.899
X-.249 Y-16.872
X-.037 Y-16.841
X.175 Y-16.809
X.386 Y-16.773
X.597 Y-16.734
X.807 Y-16.693
X1.016 Y-16.65
X1.225 Y-16.603
X1.433 Y-16.554
X1.641 Y-16.502
X1.847 Y-16.447
X2.053 Y-16.39
X2.258 Y-16.33
X2.462 Y-16.267
X2.666 Y-16.202
X2.868 Y-16.134
X3.069 Y-16.063
X3.27 Y-15.99
X3.469 Y-15.914
X3.667 Y-15.836
X3.864 Y-15.755
X4.06 Y-15.671
X4.255 Y-15.585
X4.448 Y-15.496
X4.64 Y-15.405
X4.831 Y-15.311
X5.021 Y-15.214
X5.209 Y-15.115
X5.396 Y-15.014
X5.581 Y-14.91
X5.765 Y-14.804
X5.947 Y-14.695
X6.128 Y-14.583
X6.307 Y-14.47
X6.484 Y-14.354
X6.66 Y-14.235
X6.834 Y-14.114
X7.006 Y-13.991
X7.177 Y-13.866
X7.346 Y-13.738
X7.513 Y-13.608
X7.678 Y-13.476
X7.841 Y-13.341
X8.002 Y-13.205
X8.161 Y-13.066
X8.319 Y-12.925
X8.474 Y-12.782
X8.627 Y-12.637
X8.778 Y-12.489
X8.927 Y-12.34
X9.073 Y-12.189
X9.218 Y-12.035
X9.36 Y-11.88
X9.5 Y-11.723
X9.638 Y-11.563
X9.773 Y-11.402
X9.906 Y-11.24
X10.036 Y-11.075
X10.165 Y-10.908
X10.29 Y-10.74
X10.413 Y-10.57
X10.534 Y-10.399
X10.652 Y-10.225
X10.768 Y-10.051
X10.881 Y-9.874
X10.991 Y-9.696
X11.099 Y-9.517
X11.204 Y-9.336
X11.306 Y-9.153
X11.406 Y-8.969
X11.503 Y-8.784
X11.597 Y-8.598
X11.688 Y-8.41
X11.777 Y-8.221
X11.862 Y-8.031
X11.945 Y-7.839
X12.025 Y-7.647
X12.102 Y-7.453
X12.176 Y-7.259
X12.247 Y-7.063
X12.315 Y-6.867
X12.38 Y-6.669
X12.442 Y-6.471
X12.501 Y-6.272
X12.557 Y-6.072
X12.61 Y-5.872
X12.66 Y-5.67
X12.706 Y-5.468
X12.75 Y-5.266
X12.79 Y-5.063
X12.828 Y-4.859
X12.862 Y-4.655
X12.893 Y-4.451
X12.921 Y-4.246
X12.945 Y-4.041
X12.967 Y-3.836
X12.985 Y-3.631
X13. Y-3.425
X13.012 Y-3.22
X13.02 Y-3.014
X13.026 Y-2.808
X13.028 Y-2.603
X13.027 Y-2.397
X13.022 Y-2.192
X13.014 Y-1.987
X13.003 Y-1.782
X12.989 Y-1.577
X12.972 Y-1.373
X12.951 Y-1.169
X12.927 Y-.966
X12.899 Y-.764
X12.869 Y-.561
X12.835 Y-.36
X12.798 Y-.159
X12.758 Y.041
X12.714 Y.24
X12.667 Y.438
X12.617 Y.635
X12.564 Y.832
X12.508 Y1.027
X12.448 Y1.221
X12.385 Y1.414
X12.319 Y1.606
X12.25 Y1.797
X12.178 Y1.986
X12.103 Y2.174
X12.024 Y2.36
X11.942 Y2.545
X11.858 Y2.729
X11.77 Y2.91
X11.679 Y3.09
X11.586 Y3.269
X11.489 Y3.446
X11.389 Y3.62
X11.287 Y3.793
X11.181 Y3.964
X11.073 Y4.133
X10.962 Y4.3
X10.848 Y4.465
X10.731 Y4.627
X10.611 Y4.788
X10.489 Y4.946
X10.364 Y5.102
X10.237 Y5.255
X10.106 Y5.406
X9.974 Y5.555
X9.838 Y5.701
X9.701 Y5.844
X9.56 Y5.985
X9.418 Y6.123
X9.273 Y6.258
X9.126 Y6.391
X8.976 Y6.52
X8.824 Y6.647
X8.67 Y6.771
X8.514 Y6.892
X8.356 Y7.009
X8.196 Y7.124
X8.034 Y7.236
X7.87 Y7.344
X7.705 Y7.449
X7.537 Y7.551
X7.368 Y7.649
X7.197 Y7.744
X7.024 Y7.836
X6.85 Y7.925
X6.675 Y8.009
X6.498 Y8.091
X6.319 Y8.169
X6.14 Y8.243
X5.959 Y8.313
X5.777 Y8.38
X5.594 Y8.444
X5.41 Y8.503
X5.225 Y8.559
X5.04 Y8.611
X4.853 Y8.659
X4.666 Y8.703
X4.478 Y8.744
X4.29 Y8.781
X4.101 Y8.813
X3.912 Y8.842
X3.723 Y8.867
X3.533 Y8.888
X3.344 Y8.905
X3.154 Y8.918
X2.964 Y8.927
X2.775 Y8.931
X2.586 Y8.932
X2.397 Y8.929
X2.208 Y8.922
X2.02 Y8.911
X1.833 Y8.896
X1.646 Y8.876
X1.46 Y8.853
X1.275 Y8.826
X1.091 Y8.794
X.908 Y8.759
X.726 Y8.72
X.546 Y8.676
X.366 Y8.629
X.189 Y8.578
X.013 Y8.523
X-.162 Y8.464
X-.335 Y8.401
X-.506 Y8.334
X-.674 Y8.263
X-.841 Y8.189
X-1.006 Y8.111
X-1.168 Y8.029
X-1.328 Y7.944
X-1.486 Y7.855
X-1.641 Y7.762
X-1.793 Y7.666
X-1.943 Y7.567
X-2.089 Y7.464
X-2.233 Y7.358
X-2.374 Y7.249
X-2.511 Y7.136
X-2.645 Y7.02
X-2.776 Y6.902
X-2.904 Y6.78
X-3.028 Y6.656
X-3.148 Y6.528
X-3.264 Y6.399
X-3.377 Y6.266
X-3.486 Y6.131
X-3.59 Y5.994
X-3.691 Y5.854
X-3.787 Y5.712
X-3.88 Y5.569
X-3.967 Y5.423
X-4.051 Y5.276
X-4.13 Y5.126
X-4.204 Y4.976
X-4.274 Y4.824
X-4.339 Y4.67
X-4.4 Y4.516
X-4.455 Y4.361
X-4.506 Y4.204
X-4.552 Y4.048
X-4.593 Y3.89
X-4.628 Y3.733
X-4.659 Y3.575
X-4.685 Y3.418
X-4.707 Y3.248
X-4.715 Y3.181
X-4.722 Y3.103
X-4.728 Y3.025
X-4.732 Y2.947
X-4.736 Y2.869
X-4.738 Y2.791
X-4.739 Y2.714
X-4.738 Y2.637
X-4.737 Y2.56
X-4.734 Y2.483
X-4.729 Y2.407
X-4.724 Y2.332
X-4.717 Y2.256
X-4.709 Y2.181
X-4.7 Y2.107
X-4.69 Y2.033
X-4.678 Y1.96
X-4.665 Y1.887
X-4.651 Y1.815
X-4.636 Y1.743
X-4.54 Y1.351
X-4.499 Y1.219
X-4.45 Y1.089
X-4.394 Y.962
X-4.33 Y.839
X-4.26 Y.72
X-4.183 Y.605
X-4.099 Y.494
X-4.009 Y.388
X-3.913 Y.288
X-3.811 Y.194
X-3.705 Y.105
X-3.593 Y.023
X-3.477 Y-.052
X-3.356 Y-.121
X-3.232 Y-.183
X-3.104 Y-.237
X-2.974 Y-.284
X-2.841 Y-.324
X-2.706 Y-.355
X-2.569 Y-.379
X-2.431 Y-.395
X-2.293 Y-.403
X-2.154
X-2.016 Y-.395
X-1.878 Y-.379
X-1.741 Y-.355
X-1.606 Y-.323
X-1.473 Y-.284
X-1.343 Y-.237
X-1.215 Y-.182
X-1.091 Y-.12
X-.971 Y-.052
X-.855 Y.024
X-.743 Y.106
X-.636 Y.195
X-.535 Y.29
X-.501 Y.324
X-.378 Y.445
X-.249 Y.56
X-.115 Y.668
X.023 Y.771
X.167 Y.867
X.314 Y.956
X.466 Y1.039
X.621 Y1.114
X.78 Y1.182
X.941 Y1.242
X1.105 Y1.295
X1.272 Y1.341
X1.44 Y1.378
X1.61 Y1.408
X1.781 Y1.43
X1.953 Y1.443
X2.125 Y1.449
X2.298 Y1.447
X2.47 Y1.437
X2.642 Y1.419
X2.812 Y1.393
X2.981 Y1.359
X3.149 Y1.317
X3.314 Y1.268
X3.477 Y1.211
X3.637 Y1.146
X3.793 Y1.074
X3.947 Y.995
X4.096 Y.909
X4.241 Y.816
X4.382 Y.716
X4.518 Y.61
X4.649 Y.498
X4.775 Y.38
X4.895 Y.256
X5.009 Y.127
X5.117 Y-.008
X5.219 Y-.147
X5.314 Y-.291
X5.402 Y-.439
X5.484 Y-.591
X5.558 Y-.747
X5.625 Y-.906
X5.685 Y-1.067
X5.737 Y-1.232
X5.781 Y-1.399
X5.783 Y-1.406
X5.793 Y-1.453
X5.819 Y-1.567
X5.849 Y-1.725
X5.874 Y-1.88
X5.897 Y-2.054
X5.922 Y-2.336
X5.933 Y-2.632
X5.929 Y-2.92
X5.912 Y-3.202
X5.883 Y-3.478
X5.842 Y-3.747
X5.791 Y-4.01
X5.729 Y-4.266
X5.659 Y-4.517
X5.58 Y-4.762
X5.493 Y-5.
X5.398 Y-5.233
X5.296 Y-5.46
X5.188 Y-5.68
X5.073 Y-5.895
X4.951 Y-6.105
X4.824 Y-6.308
X4.692 Y-6.506
X4.555 Y-6.698
X4.412 Y-6.884
X4.265 Y-7.065
X4.114 Y-7.24
X3.959 Y-7.41
X3.799 Y-7.573
X3.636 Y-7.732
X3.47 Y-7.885
X3.3 Y-8.032
X3.127 Y-8.175
X2.952 Y-8.311
X2.773 Y-8.443
X2.592 Y-8.569
X2.409 Y-8.69
X2.223 Y-8.805
X2.036 Y-8.916
X1.846 Y-9.021
X1.655 Y-9.121
X1.462 Y-9.217
X1.267 Y-9.307
X1.071 Y-9.392
X.874 Y-9.472
X.675 Y-9.548
X.476 Y-9.618
X.275 Y-9.684
X.074 Y-9.745
X-.128 Y-9.801
X-.33 Y-9.853
X-.533 Y-9.9
X-.737 Y-9.942
X-.94 Y-9.98
X-1.144 Y-10.013
X-1.349 Y-10.042
X-1.553 Y-10.067
X-1.757 Y-10.087
X-1.961 Y-10.103
X-2.165 Y-10.115
X-2.368 Y-10.122
X-2.571 Y-10.126
X-2.774 Y-10.125
X-2.976 Y-10.12
X-3.178 Y-10.112
X-3.379 Y-10.099
X-3.579 Y-10.082
X-3.779 Y-10.062
X-3.977 Y-10.038
X-4.175 Y-10.01
X-4.372 Y-9.978
X-4.568 Y-9.943
X-4.763 Y-9.904
X-4.957 Y-9.861
X-5.149 Y-9.815
X-5.34 Y-9.766
X-5.53 Y-9.713
X-5.719 Y-9.657
X-5.907 Y-9.597
X-6.093 Y-9.535
X-6.277 Y-9.469
X-6.46 Y-9.4
X-6.642 Y-9.327
X-6.822 Y-9.252
X-7. Y-9.174
X-7.177 Y-9.092
X-7.352 Y-9.008
X-7.525 Y-8.921
X-7.696 Y-8.831
X-7.866 Y-8.738
X-8.034 Y-8.643
X-8.2 Y-8.545
X-8.364 Y-8.444
X-8.526 Y-8.341
X-8.687 Y-8.235
X-8.845 Y-8.127
X-9.001 Y-8.016
X-9.155 Y-7.903
X-9.308 Y-7.787
X-9.458 Y-7.67
X-9.606 Y-7.55
X-9.752 Y-7.427
X-9.896 Y-7.303
X-10.037 Y-7.176
X-10.177 Y-7.048
X-10.314 Y-6.917
X-10.449 Y-6.784
X-10.582 Y-6.65
X-10.713 Y-6.513
X-10.841 Y-6.375
X-10.967 Y-6.235
X-11.091 Y-6.093
X-11.212 Y-5.949
X-11.332 Y-5.804
X-11.448 Y-5.657
X-11.563 Y-5.508
X-11.675 Y-5.358
X-11.785 Y-5.207
X-11.892 Y-5.053
X-11.997 Y-4.899
X-12.1 Y-4.743
X-12.2 Y-4.586
X-12.298 Y-4.427
X-12.393 Y-4.267
X-12.486 Y-4.106
X-12.577 Y-3.944
X-12.665 Y-3.781
X-12.751 Y-3.616
X-12.834 Y-3.451
X-12.915 Y-3.284
X-12.994 Y-3.117
X-13.07 Y-2.948
X-13.147 Y-2.769
X-13.283 Y-2.437
X-13.413 Y-2.093
X-13.533 Y-1.745
X-13.644 Y-1.395
X-13.744 Y-1.042
X-13.835 Y-.688
X-13.916 Y-.331
X-13.988 Y.027
X-14.05 Y.386
X-14.102 Y.746
X-14.145 Y1.107
X-14.178 Y1.469
X-14.202 Y1.831
X-14.216 Y2.192
X-14.221 Y2.554
X-14.217 Y2.915
X-14.204 Y3.276
X-14.182 Y3.635
X-14.151 Y3.994
X-14.111 Y4.351
X-14.062 Y4.707
X-14.004 Y5.061
X-13.938 Y5.413
X-13.863 Y5.763
X-13.78 Y6.111
X-13.689 Y6.456
X-13.59 Y6.799
X-13.482 Y7.138
X-13.367 Y7.475
X-13.244 Y7.809
X-13.113 Y8.139
X-12.974 Y8.466
X-12.829 Y8.789
X-12.676 Y9.109
X-12.515 Y9.424
X-12.348 Y9.736
X-12.174 Y10.043
X-11.992 Y10.346
X-11.805 Y10.645
X-11.611 Y10.939
X-11.41 Y11.228
X-11.203 Y11.513
X-10.99 Y11.792
X-10.771 Y12.067
X-10.547 Y12.337
X-10.316 Y12.601
X-10.08 Y12.86
X-9.839 Y13.114
X-9.593 Y13.362
X-9.341 Y13.604
X-9.085 Y13.841
X-8.823 Y14.073
X-8.557 Y14.298
X-8.286 Y14.518
X-8.012 Y14.731
X-7.732 Y14.939
X-7.449 Y15.141
X-7.162 Y15.336
X-6.871 Y15.526
X-6.576 Y15.709
X-6.278 Y15.886
X-5.976 Y16.056
X-5.671 Y16.221
X-5.363 Y16.379
X-5.053 Y16.53
X-4.739 Y16.676
X-4.423 Y16.814
X-4.104 Y16.947
X-3.782 Y17.072
X-3.459 Y17.191
X-3.133 Y17.304
X-2.806 Y17.41
X-2.476 Y17.51
X-2.145 Y17.603
X-1.812 Y17.689
X-1.478 Y17.769
X-1.143 Y17.843
X-.806 Y17.909
X-.469 Y17.969
X-.13 Y18.023
X.209 Y18.07
X.549 Y18.111
X.89 Y18.145
X1.231 Y18.172
X1.572 Y18.193
X1.913 Y18.208
X2.255 Y18.216
X2.596 Y18.217
X2.937 Y18.213
X3.278 Y18.201
X3.618 Y18.184
X3.958 Y18.16
X4.297 Y18.13
X4.636 Y18.094
X4.973 Y18.051
X5.31 Y18.003
X5.645 Y17.948
X5.979 Y17.887
X6.312 Y17.82
X6.643 Y17.747
X6.973 Y17.668
X7.301 Y17.583
X7.628 Y17.493
X7.953 Y17.396
X8.275 Y17.294
X8.596 Y17.186
X8.915 Y17.073
X9.231 Y16.954
X9.545 Y16.829
X9.857 Y16.699
X10.166 Y16.563
X10.473 Y16.423
X10.777 Y16.276
X11.079 Y16.125
X11.377 Y15.969
X11.673 Y15.807
X11.966 Y15.64
X12.255 Y15.469
X12.542 Y15.292
X12.825 Y15.111
X13.105 Y14.925
X13.382 Y14.734
X13.656 Y14.539
X13.926 Y14.339
X14.192 Y14.134
X14.455 Y13.925
X14.714 Y13.712
X14.969 Y13.495
X15.221 Y13.273
X15.469 Y13.048
X15.713 Y12.818
X15.953 Y12.584
X16.188 Y12.347
X16.42 Y12.105
X16.648 Y11.86
X16.872 Y11.612
X17.091 Y11.359
X17.306 Y11.104
X17.517 Y10.844
X17.724 Y10.582
X17.926 Y10.316
X18.124 Y10.047
X18.317 Y9.775
X18.506 Y9.5
X18.69 Y9.222
X18.87 Y8.942
X19.045 Y8.658
X19.215 Y8.372
X19.381 Y8.083
X19.542 Y7.792
X19.698 Y7.498
X19.85 Y7.202
X19.997 Y6.904
X20.139 Y6.603
X20.276 Y6.3
X20.408 Y5.995
X20.536 Y5.689
X20.658 Y5.38
X20.776 Y5.07
X20.889 Y4.758
X20.997 Y4.444
X21.1 Y4.129
X21.198 Y3.812
X21.291 Y3.494
X21.379 Y3.174
X21.462 Y2.854
X21.541 Y2.532
X21.614 Y2.209
X21.682 Y1.885
X21.745 Y1.56
X21.804 Y1.235
X21.857 Y.908
X21.905 Y.581
X21.948 Y.254
X21.987 Y-.075
X22.02 Y-.403
X22.048 Y-.732
X22.071 Y-1.062
X22.09 Y-1.391
X22.103 Y-1.721
X22.112 Y-2.051
X22.115 Y-2.381
X22.114 Y-2.71
X22.107 Y-3.04
X22.096 Y-3.369
X22.08 Y-3.698
X22.059 Y-4.027
X22.033 Y-4.355
X22.002 Y-4.683
X21.967 Y-5.01
X21.927 Y-5.337
X21.881 Y-5.663
X21.832 Y-5.988
X21.777 Y-6.312
X21.718 Y-6.636
X21.654 Y-6.958
X21.585 Y-7.279
X21.512 Y-7.6
X21.434 Y-7.919
X21.351 Y-8.236
X21.264 Y-8.553
X21.172 Y-8.868
X21.076 Y-9.182
X20.975 Y-9.494
X20.87 Y-9.805
X20.761 Y-10.114
X20.647 Y-10.421
X20.529 Y-10.727
X20.406 Y-11.031
X20.279 Y-11.333
X20.148 Y-11.633
X20.013 Y-11.931
X19.874 Y-12.227
X19.73 Y-12.521
X19.582 Y-12.813
X19.431 Y-13.103
X19.275 Y-13.391
X19.115 Y-13.676
X18.951 Y-13.959
X18.784 Y-14.24
X18.612 Y-14.518
X18.437 Y-14.794
X18.258 Y-15.067
X18.075 Y-15.337
X17.888 Y-15.605
X17.698 Y-15.871
X17.504 Y-16.133
X17.307 Y-16.393
X17.106 Y-16.65
X16.902 Y-16.905
X16.694 Y-17.156
X16.483 Y-17.404
X16.268 Y-17.65
X16.05 Y-17.892
X15.829 Y-18.132
X15.605 Y-18.368
X15.378 Y-18.601
X15.147 Y-18.831
X14.913 Y-19.058
X14.677 Y-19.282
X14.437 Y-19.502
X14.195 Y-19.719
X13.95 Y-19.933
X13.701 Y-20.143
X13.451 Y-20.35
X13.197 Y-20.554
X12.941 Y-20.754
X12.682 Y-20.951
X12.421 Y-21.144
X12.157 Y-21.333
X11.89 Y-21.52
X11.622 Y-21.702
X11.351 Y-21.881
X11.077 Y-22.056
X10.802 Y-22.227
X10.524 Y-22.395
X10.244 Y-22.559
X9.962 Y-22.72
X9.678 Y-22.876
X9.392 Y-23.029
X9.104 Y-23.178
X8.814 Y-23.323
X8.522 Y-23.465
X8.228 Y-23.602
X7.933 Y-23.736
X7.636 Y-23.866
X7.338 Y-23.992
X7.038 Y-24.114
X6.736 Y-24.232
X6.433 Y-24.346
X6.129 Y-24.456
X5.823 Y-24.563
X5.516 Y-24.665
X5.208 Y-24.763
X4.898 Y-24.858
X4.588 Y-24.948
X4.276 Y-25.034
X3.963 Y-25.116
X3.65 Y-25.195
X3.335 Y-25.269
X3.02 Y-25.339
X2.703 Y-25.405
X2.386 Y-25.467
X2.069 Y-25.526
X1.75 Y-25.58
X1.431 Y-25.63
X1.111 Y-25.676
X.791 Y-25.717
X.471 Y-25.755
X.15 Y-25.789
X-.171 Y-25.819
X-.493 Y-25.845
X-.815 Y-25.866
X-1.137 Y-25.884
X-1.459 Y-25.898
X-1.781 Y-25.907
X-2.104 Y-25.913
X-2.426 Y-25.914
X-2.748 Y-25.912
X-3.071 Y-25.905
X-3.393 Y-25.895
X-3.714 Y-25.88
X-4.036 Y-25.862
X-4.357 Y-25.839
X-4.678 Y-25.813
X-4.999 Y-25.782
X-5.319 Y-25.748
X-5.638 Y-25.71
X-5.957 Y-25.668
X-6.276 Y-25.622
X-6.594 Y-25.572
X-6.911 Y-25.518
X-7.227 Y-25.46
X-7.543 Y-25.399
X-7.858 Y-25.333
X-8.172 Y-25.264
X-8.485 Y-25.191
X-8.797 Y-25.114
X-9.108 Y-25.033
X-9.418 Y-24.949
X-9.727 Y-24.861
X-10.035 Y-24.769
X-10.341 Y-24.674
X-10.647 Y-24.574
X-10.951 Y-24.472
X-11.254 Y-24.365
X-11.555 Y-24.255
X-11.855 Y-24.141
X-12.154 Y-24.024
X-12.451 Y-23.903
X-12.747 Y-23.779
X-13.041 Y-23.651
X-13.334 Y-23.519
X-13.625 Y-23.385
X-13.914 Y-23.246
X-14.202 Y-23.105
X-14.488 Y-22.96
X-14.772 Y-22.811
X-15.054 Y-22.659
X-15.335 Y-22.504
X-15.613 Y-22.346
X-15.89 Y-22.184
X-16.164 Y-22.019
X-16.437 Y-21.851
X-16.708 Y-21.68
X-16.976 Y-21.506
X-17.243 Y-21.328
X-17.507 Y-21.147
X-17.769 Y-20.964
X-18.029 Y-20.777
X-18.287 Y-20.587
X-18.542 Y-20.395
X-18.795 Y-20.199
X-19.046 Y-20.
X-19.295 Y-19.799
X-19.541 Y-19.595
X-19.784 Y-19.388
X-20.026 Y-19.178
X-20.264 Y-18.965
X-20.501 Y-18.75
X-20.734 Y-18.532
X-20.965 Y-18.311
X-21.194 Y-18.088
X-21.42 Y-17.862
X-21.643 Y-17.633
X-21.864 Y-17.402
X-22.082 Y-17.169
X-22.297 Y-16.933
X-22.509 Y-16.694
X-22.719 Y-16.454
X-22.926 Y-16.21
X-23.13 Y-15.965
X-23.331 Y-15.717
X-23.53 Y-15.467
X-23.725 Y-15.215
X-23.918 Y-14.961
X-24.107 Y-14.704
X-24.294 Y-14.446
X-24.478 Y-14.185
X-24.659 Y-13.922
X-24.836 Y-13.657
X-25.011 Y-13.391
X-25.183 Y-13.122
X-25.351 Y-12.852
X-25.517 Y-12.579
X-25.679 Y-12.305
X-25.839 Y-12.029
X-25.995 Y-11.751
X-26.148 Y-11.472
X-26.298 Y-11.191
X-26.445 Y-10.908
X-26.588 Y-10.624
X-26.729 Y-10.338
X-26.866 Y-10.051
X-27. Y-9.762
X-27.131 Y-9.472
X-27.258 Y-9.18
X-27.382 Y-8.887
X-27.503 Y-8.592
X-27.621 Y-8.297
X-27.735 Y-8.
X-27.846 Y-7.702
X-27.954 Y-7.402
X-28.058 Y-7.102
X-28.159 Y-6.8
X-28.257 Y-6.497
X-28.351 Y-6.194
X-28.442 Y-5.889
X-28.53 Y-5.584
X-28.614 Y-5.277
X-28.695 Y-4.97
X-28.772 Y-4.661
X-28.846 Y-4.352
X-28.917 Y-4.043
X-28.984 Y-3.732
X-29.048 Y-3.421
X-29.109 Y-3.109
X-29.166 Y-2.796
X-29.219 Y-2.483
X-29.27 Y-2.17
X-29.317 Y-1.856
X-29.36 Y-1.541
X-29.4 Y-1.226
X-29.437 Y-.911
X-29.47 Y-.595
X-29.499 Y-.279
X-29.526 Y.037
X-29.549 Y.353
X-29.568 Y.67
X-29.584 Y.987
X-29.597 Y1.304
X-29.606 Y1.621
X-29.612 Y1.938
X-29.614 Y2.255
X-29.613 Y2.572
X-29.609 Y2.889
X-29.601 Y3.206
X-29.59 Y3.523
X-29.576 Y3.84
X-29.558 Y4.156
X-29.537 Y4.472
X-29.512 Y4.788
X-29.484 Y5.104
X-29.453 Y5.419
X-29.418 Y5.734
X-29.38 Y6.049
X-29.338 Y6.363
X-29.294 Y6.676
X-29.246 Y6.989
X-29.195 Y7.302
X-29.14 Y7.614
X-29.082 Y7.925
X-29.021 Y8.236
X-28.956 Y8.546
X-28.889 Y8.855
X-28.818 Y9.163
X-28.744 Y9.471
X-28.666 Y9.778
X-28.586 Y10.084
X-28.502 Y10.389
X-28.415 Y10.693
X-28.325 Y10.996
X-28.232 Y11.298
X-28.135 Y11.6
X-28.036 Y11.9
X-27.933 Y12.199
X-27.827 Y12.497
X-27.718 Y12.794
X-27.607 Y13.089
X-27.492 Y13.384
X-27.374 Y13.677
X-27.253 Y13.969
X-27.128 Y14.26
X-27.001 Y14.549
X-26.871 Y14.837
X-26.738 Y15.124
X-26.602 Y15.409
X-26.464 Y15.692
X-26.322 Y15.975
X-26.177 Y16.256
X-26.03 Y16.535
X-25.879 Y16.812
X-25.726 Y17.089
X-25.57 Y17.363
X-25.411 Y17.636
X-25.25 Y17.907 
X-25.086 Y18.177
X-24.918 Y18.444
X-24.749 Y18.71
X-24.576 Y18.975
X-24.401 Y19.237
X-24.223 Y19.498
X-24.043 Y19.757
X-23.86 Y20.014
X-23.674 Y20.269
X-23.486 Y20.522
X-23.295 Y20.773
X-23.102 Y21.022
X-22.906 Y21.27
X-22.708 Y21.515
X-22.507 Y21.758
X-22.304 Y21.999
X-22.099 Y22.238
X-21.891 Y22.475
X-21.68 Y22.71
X-21.468 Y22.942
X-21.253 Y23.173
X-21.036 Y23.401
X-20.816 Y23.627
X-20.594 Y23.851
X-20.37 Y24.073
X-20.144 Y24.292
X-19.916 Y24.509
X-19.686 Y24.724
X-19.453 Y24.936
X-19.218 Y25.146
X-18.981 Y25.354
X-18.743 Y25.559
X-18.502 Y25.762
X-18.259 Y25.962
X-18.014 Y26.16
X-17.768 Y26.356
X-17.519 Y26.549
X-17.269 Y26.739
X-17.016 Y26.927
X-16.762 Y27.113
X-16.506 Y27.296
X-16.248 Y27.476
X-15.989 Y27.654
X-15.727 Y27.829
X-15.464 Y28.002
X-15.2 Y28.172
X-14.934 Y28.339
X-14.666 Y28.504
X-14.396 Y28.666
X-14.125 Y28.826
X-13.853 Y28.983
X-13.578 Y29.137
X-13.303 Y29.288
X-13.026 Y29.437
X-12.747 Y29.582
X-12.468 Y29.726
X-12.186 Y29.866
X-11.904 Y30.004
X-11.62 Y30.138
X-11.335 Y30.271
X-11.048 Y30.4
X-10.761 Y30.526
X-10.472 Y30.65
X-10.182 Y30.771
X-9.891 Y30.889
X-9.599 Y31.004
X-9.305 Y31.116
X-9.011 Y31.225
X-8.716 Y31.332
X-8.419 Y31.436
X-8.122 Y31.536
X-7.823 Y31.634
X-7.524 Y31.729
X-7.224 Y31.822
X-6.923 Y31.911
X-6.621 Y31.997
X-6.319 Y32.08
X-6.015 Y32.161
X-5.711 Y32.238
X-5.407 Y32.313
X-5.101 Y32.385
X-4.795 Y32.453
X-4.488 Y32.519
X-4.181 Y32.582
X-3.873 Y32.642
X-3.564 Y32.699
X-3.255 Y32.752
X-2.946 Y32.803
X-2.636 Y32.851
X-2.326 Y32.897
X-2.015 Y32.939
X-1.704 Y32.978
X-1.392 Y33.014
X-1.081 Y33.047
X-.769 Y33.077
X-.456 Y33.104
X-.144 Y33.129
X.169 Y33.15
X.482 Y33.168
X.795 Y33.184
X1.108 Y33.196
X1.421 Y33.206
X1.734 Y33.212
X2.048 Y33.215
X2.361 Y33.216
X2.674 Y33.214
X2.987 Y33.208
X3.3 Y33.2
X3.613 Y33.189
X3.926 Y33.174
X4.239 Y33.157
X4.551 Y33.137
X4.864 Y33.114
X5.176 Y33.088
X5.487 Y33.059
X5.799 Y33.028
X6.11 Y32.993
X6.421 Y32.955
X6.731 Y32.915
X7.041 Y32.871
X7.351 Y32.825
X7.66 Y32.776
X7.968 Y32.724
X8.276 Y32.669
X8.584 Y32.611
X8.891 Y32.55
X9.197 Y32.487
X9.503 Y32.42
X9.808 Y32.351
X10.112 Y32.279
X10.416 Y32.204
X10.719 Y32.127
X11.021 Y32.046
X11.323 Y31.963
X11.623 Y31.877
X11.923 Y31.788
X12.222 Y31.697
X12.52 Y31.602
X12.817 Y31.505
X13.114 Y31.406
X13.409 Y31.303
X13.703 Y31.198
X13.996 Y31.09
X14.289 Y30.979
X14.58 Y30.866
X14.87 Y30.75
X15.159 Y30.632
X15.447 Y30.51
X15.734 Y30.387
X16.02 Y30.26
X16.304 Y30.131
X16.588 Y29.999
X16.87 Y29.865
X17.151 Y29.728
X17.43 Y29.589
X17.708 Y29.447
X17.985 Y29.303
X18.261 Y29.156
X18.535 Y29.006
X18.808 Y28.855
X19.079 Y28.7
X19.349 Y28.543
X19.618 Y28.384
X19.885 Y28.223
X20.15 Y28.058
X20.414 Y27.892
X20.677 Y27.723
X20.938 Y27.552
X21.197 Y27.378
X21.455 Y27.203
X21.711 Y27.024
X21.966 Y26.844
X22.219 Y26.661
X22.47 Y26.476
X22.719 Y26.289
X22.967 Y26.099
X23.213 Y25.908
X23.458 Y25.714
X23.7 Y25.518
X23.941 Y25.319
X24.18 Y25.119
X24.417 Y24.917
X24.653 Y24.712
X24.886 Y24.505
X25.118 Y24.296
X25.347 Y24.086
X25.575 Y23.873
X25.801 Y23.658
X26.025 Y23.441
X26.247 Y23.222
X26.467 Y23.001
X26.685 Y22.779
X26.901 Y22.554
X27.115 Y22.327
X27.327 Y22.099
X27.537 Y21.868
X27.745 Y21.636
X27.95 Y21.402
X28.154 Y21.166
X28.356 Y20.929
X28.555 Y20.69
X28.752 Y20.448
X28.947 Y20.206
X29.14 Y19.961
X29.331 Y19.715
X29.52 Y19.467
X29.706 Y19.217
X29.89 Y18.966
X30.072 Y18.714
X30.252 Y18.459
X30.429 Y18.203
X30.604 Y17.946
X30.777 Y17.687
X30.948 Y17.426
X31.116 Y17.165
X31.282 Y16.901
X31.446 Y16.636
X31.607 Y16.37
X31.766 Y16.103
X31.922 Y15.834
X32.077 Y15.563
X32.229 Y15.292
X32.378 Y15.019
X32.525 Y14.744
X32.67 Y14.469
X32.812 Y14.192
X32.952 Y13.914
X33.089 Y13.635
X33.224 Y13.355
X33.356 Y13.073
X33.486 Y12.79
X33.614 Y12.507
X33.739 Y12.222
X33.861 Y11.936
X33.981 Y11.649
X34.099 Y11.361
X34.214 Y11.072
X34.326 Y10.782
X34.436 Y10.492
X34.544 Y10.2
X34.649 Y9.907
X34.751 Y9.614
X34.851 Y9.319
X34.948 Y9.024
X35.043 Y8.728
X35.135 Y8.431
X35.225 Y8.133
X35.312 Y7.835
X35.396 Y7.536
X35.478 Y7.236
X35.558 Y6.936
X35.634 Y6.634
X35.708 Y6.333
X35.78 Y6.03
X35.849 Y5.727
X35.915 Y5.424
X35.979 Y5.12
X36.04 Y4.815
X36.098 Y4.51
X36.154 Y4.204
X36.207 Y3.898
X36.258 Y3.592
X36.306 Y3.285
X36.351 Y2.978
X36.394 Y2.67
X36.434 Y2.362
X36.471 Y2.054
X36.506 Y1.745
X36.538 Y1.437
X36.568 Y1.127
X36.595 Y.818
X36.619 Y.509
X36.641 Y.199
X36.66 Y-.111
X36.676 Y-.421
X36.69 Y-.731
X36.701 Y-1.041
X36.709 Y-1.351
X36.715 Y-1.662
X36.718 Y-1.972
X36.719 Y-2.282
X36.717 Y-2.593
X36.712 Y-2.903
X36.705 Y-3.213
X36.695 Y-3.523
X36.683 Y-3.833
X36.668 Y-4.143
X36.65 Y-4.453
X36.63 Y-4.763
X36.607 Y-5.072
X36.581 Y-5.381
X36.553 Y-5.69
X36.522 Y-5.999
X36.489 Y-6.307
X36.453 Y-6.615
X36.414 Y-6.923
X36.373 Y-7.23
X36.33 Y-7.537
X36.283 Y-7.844
X36.235 Y-8.15
X36.183 Y-8.456
X36.129 Y-8.761
X36.073 Y-9.066
X36.014 Y-9.37
X35.952 Y-9.674
X35.888 Y-9.977
X35.822 Y-10.28
X35.753 Y-10.582
X35.681 Y-10.884
X35.607 Y-11.185
X35.53 Y-11.485
X35.451 Y-11.785
X35.37 Y-12.084
X35.286 Y-12.382
X35.199 Y-12.679
X35.11 Y-12.976
X35.018 Y-13.272
X34.925 Y-13.568
X34.828 Y-13.862
X34.729 Y-14.156
X34.628 Y-14.448
X34.524 Y-14.74
X34.418 Y-15.031
X34.31 Y-15.322
X34.199 Y-15.611
X34.086 Y-15.899
X33.97 Y-16.186
X33.852 Y-16.473
X33.732 Y-16.758
X33.609 Y-17.042
X33.484 Y-17.326
X33.357 Y-17.608
X33.227 Y-17.889
X33.096 Y-18.169
X32.961 Y-18.448
X32.825 Y-18.726
X32.686 Y-19.003
X32.545 Y-19.279
X32.402 Y-19.553
X32.256 Y-19.826
X32.108 Y-20.098
X31.958 Y-20.369
X31.806 Y-20.639
X31.652 Y-20.907
X31.495 Y-21.174
X31.337 Y-21.439
X31.176 Y-21.704
X31.013 Y-21.967
X30.848 Y-22.228
X30.68 Y-22.489
X30.511 Y-22.748
X30.339 Y-23.005
X30.166 Y-23.261
X29.99 Y-23.516
X29.812 Y-23.769
X29.633 Y-24.021
X29.451 Y-24.271
X29.267 Y-24.52
X29.081 Y-24.767
X28.893 Y-25.013
X28.703 Y-25.257
X28.512 Y-25.5
X28.318 Y-25.741
X28.122 Y-25.98
X27.925 Y-26.218
X27.725 Y-26.454
X27.524 Y-26.689
X27.321 Y-26.922
X27.115 Y-27.153
X26.908 Y-27.383
X26.7 Y-27.611
X26.489 Y-27.837
X26.276 Y-28.062
X26.062 Y-28.285
X25.846 Y-28.506
X25.628 Y-28.725
X25.409 Y-28.943
X25.187 Y-29.158
X24.964 Y-29.372
X24.74 Y-29.585
X24.513 Y-29.795
X24.285 Y-30.003
X24.055 Y-30.21
X23.824 Y-30.415
X23.591 Y-30.618
X23.356 Y-30.819
X23.12 Y-31.018
X22.882 Y-31.215
X22.643 Y-31.411
X22.402 Y-31.604
X22.16 Y-31.796
X21.916 Y-31.985
X21.67 Y-32.173
X21.423 Y-32.358
X21.175 Y-32.542
X20.925 Y-32.723
X20.674 Y-32.903
X20.421 Y-33.081
X20.167 Y-33.256
X19.912 Y-33.43
X19.655 Y-33.601
X19.397 Y-33.771
X19.137 Y-33.938
X18.876 Y-34.103
X18.614 Y-34.267
X18.351 Y-34.428
X18.086 Y-34.587
X17.82 Y-34.744
X17.553 Y-34.898
X17.285 Y-35.051
X17.015 Y-35.202
X16.745 Y-35.35
X16.473 Y-35.496
X16.2 Y-35.64
X15.926 Y-35.782
X15.651 Y-35.922
X15.374 Y-36.06
X15.097 Y-36.195
X14.818 Y-36.328
X14.539 Y-36.459
X14.259 Y-36.588
X13.977 Y-36.714
X13.695 Y-36.839
X13.411 Y-36.961
X13.127 Y-37.081
X12.842 Y-37.198
X12.556 Y-37.314
X12.269 Y-37.427
X11.981 Y-37.537
X11.692 Y-37.646
X11.402 Y-37.752
X11.112 Y-37.856
X10.821 Y-37.958
X10.529 Y-38.058
X10.236 Y-38.155
X9.943 Y-38.25
X9.648 Y-38.342
X9.353 Y-38.432
X9.058 Y-38.52
X8.762 Y-38.606
X8.465 Y-38.689
X8.167 Y-38.77
X7.869 Y-38.849
X7.57 Y-38.925
X7.271 Y-38.999
X6.971 Y-39.071
X6.671 Y-39.14
X6.37 Y-39.207
X6.068 Y-39.272
X5.766 Y-39.334
X5.464 Y-39.394
X5.161 Y-39.451
X4.858 Y-39.507
X4.554 Y-39.559
X4.25 Y-39.61
X3.946 Y-39.658
X3.641 Y-39.704
X3.336 Y-39.747
X3.03 Y-39.788
X2.725 Y-39.827
X2.419 Y-39.863
X2.112 Y-39.897
X1.806 Y-39.929
X1.499 Y-39.958
X1.192 Y-39.985
X.885 Y-40.009
X.578 Y-40.031
X.27 Y-40.051
X-.037 Y-40.068
X-.345 Y-40.083
X-.653 Y-40.096
X-.961 Y-40.106
X-1.24 Y-40.113
X-1.269 Y-40.114
X-1.27 Y-40.115 
X-2.753 Y-41.178
X-2.875 Y-41.261
X-3.001 Y-41.338
X-3.13 Y-41.408
X-3.263 Y-41.472
X-3.399 Y-41.53
X-3.537 Y-41.581
X-3.678 Y-41.625
X-3.821 Y-41.661
X-3.965 Y-41.691
X-4.111 Y-41.714
X-4.258 Y-41.73
X-4.405 Y-41.738
X-4.552 Y-41.739
X-4.7 Y-41.733
X-4.847 Y-41.719
X-5.419 Y-41.649
X-5.99 Y-41.571
X-6.56 Y-41.485
X-7.129 Y-41.391
X-7.696 Y-41.289
X-8.262 Y-41.179
X-8.827 Y-41.062
X-9.389 Y-40.937
X-9.95 Y-40.804
X-10.509 Y-40.664
X-11.067 Y-40.516
X-11.622 Y-40.36
X-12.174 Y-40.197
X-12.725 Y-40.026
X-13.273 Y-39.848
X-13.819 Y-39.662
X-14.362 Y-39.468
X-14.902 Y-39.267
X-15.44 Y-39.059
X-15.974 Y-38.844
X-16.506 Y-38.621
X-17.035 Y-38.39
X-17.56 Y-38.153
X-18.082 Y-37.908
X-18.6 Y-37.657
X-19.116 Y-37.398
X-19.627 Y-37.132
X-20.135 Y-36.859
X-20.639 Y-36.579
X-21.139 Y-36.292
X-21.635 Y-35.999
X-22.127 Y-35.699
X-22.615 Y-35.392
X-22.738 Y-35.309
X-22.857 Y-35.22
X-22.971 Y-35.125
X-23.081 Y-35.025
X-23.185 Y-34.919
X-23.284 Y-34.808
X-23.377 Y-34.693
X-23.465 Y-34.573
X-23.546 Y-34.449
X-23.622 Y-34.321
X-23.691 Y-34.19
X-23.753 Y-34.055
X-23.808 Y-33.918
X-23.857 Y-33.777
X-23.899 Y-33.635
X-24.013 Y-33.206
X-24.047 Y-33.063
X-24.074 Y-32.919
X-24.095 Y-32.773
X-24.108 Y-32.626
X-24.113 Y-32.479
X-24.112 Y-32.332
X-24.103 Y-32.185
X-24.087 Y-32.038
X-24.064 Y-31.893
X-24.034 Y-31.749
X-23.997 Y-31.606
X-23.953 Y-31.466
X-23.902 Y-31.328
X-23.844 Y-31.192
X-23.78 Y-31.06
X-23.709 Y-30.93
X-23.071 Y-29.83
X-22.997 Y-29.694
X-22.93 Y-29.555
X-22.87 Y-29.412
X-22.818 Y-29.266
X-22.773 Y-29.118
X-22.736 Y-28.968
X-22.707 Y-28.816
X-22.686 Y-28.663
X-22.672 Y-28.509
X-22.667 Y-28.355
X-22.669 Y-28.2
X-22.679 Y-28.046
X-22.698 Y-27.892
X-22.724 Y-27.74
X-22.758 Y-27.589
X-22.8 Y-27.44
X-22.849 Y-27.294
X-22.906 Y-27.15
X-22.97 Y-27.009
X-23.042 Y-26.872
X-23.12 Y-26.739
X-23.205 Y-26.61
X-23.297 Y-26.485
X-23.395 Y-26.365
X-23.499 Y-26.251
X-23.609 Y-26.142
X-23.724 Y-26.039
X-23.844 Y-25.942
G04 X1
M30
%
